img/weathericons/heavyrainshowers_night.svg

<svg viewBox="0 0 100 100" xmlns="http://www.w3.org/2000/svg" xmlns:xlink="http://www.w3.org/1999/xlink"><mask id="a"><path d="m0 0h100v100h-100z" fill="#fff"/><use height="100" stroke="#000" stroke-linejoin="round" stroke-width="10" transform="translate(3 18)" width="100" xlink:href="#d"/></mask><linearGradient id="b" x1="0%" x2="100%" y1="50%" y2="0%"><stop offset="0" stop-color="#686e73"/><stop offset="1" stop-color="#6a7075"/></linearGradient><symbol id="c"><path d="m2.5 13a2.5 2.5 0 0 1 -2.29-3.49l3.55-8a2.5 2.5 0 0 1 4.57 2l-3.55 8a2.5 2.5 0 0 1 -2.28 1.49z" fill="#0062bf"/></symbol><symbol id="d"><path d="m55.7 5a23.94 23.94 0 0 0 -21.33 13.05 9.9 9.9 0 0 0 -12.78 5.56 15 15 0 0 0 -1.71-.1 14.81 14.81 0 0 0 -10.68 4.49 14.63 14.63 0 0 0 -4.2 10.17v.21a14.83 14.83 0 0 0 14.88 14.68h55.71a14.3 14.3 0 0 0 3.67-28.14 23.93 23.93 0 0 0 -23.56-19.92z"/><image height="43" width="85" x="5" xlink:href="data:image/png;base64,iVBORw0KGgoAAAANSUhEUgAAAFYAAAAkCAMAAAAkYj0PAAAABGdBTUEAALGPC/xhBQAAAAFzUkdCAK7OHOkAAAAVUExURSgoKExpcaCgoFBQUG5ublBQUISEhI1fsT0AAAAHdFJOUxsACBsPFRpGXuFgAAABWElEQVRIx7XV25bDIAgF0BMu/v8nF/E+iWlqHNKVN3cpIMXxL4GFM3SQfTazkUyxk63oLYwlVSy2silXkS/wUrZS2a3ZCn1zsdSw7UUYijuHsTa1IvfwWrbSXLkc4N9r27JViwmM1UtWXA3hohQ41m6vl8FQZi7wu2z7KXPW4uRiZS+2AmdXN7DdQEQWQHYHlt6z0dXBBa2xeeVktiZc1jDoF5eGkI4d4MjKc7cNbZ3bqjocLLx5oPDYTaIftcfvAvcs2GFxVsJTOP1wO1jGdUSLaz/DWA1Tl45+Tkqul2ArcPzayGq8JafOUffP3TUp6JQs+Rptc6vtmtBkUw+dv0NzWG0PYf8O7Ym09+ITXyXOPZqEX95aFe3PKxRsL2XV3HR+ZALirPSF0ceHp6F51WBv1A22VaW2GHWzWvat8LOAPf4CrjrA+neNK7+PQBf/DmmLrId09/QDWyESBsibwBUAAAAASUVORK5CYII=" y="14"/></symbol><symbol id="e"><use fill="#999" height="100" transform="translate(3 18)" width="100" xlink:href="#d"/><use height="100" transform="translate(18 78)" width="100" xlink:href="#c"/><use height="100" transform="translate(32 87)" width="100" xlink:href="#c"/><use height="100" transform="translate(47 79)" width="100" xlink:href="#c"/><use height="100" transform="translate(60 78)" width="100" xlink:href="#c"/><use height="100" transform="translate(74 87)" width="100" xlink:href="#c"/></symbol><symbol id="f"><path d="m28.43 0a28.44 28.44 0 0 1 3.87 14.32 28.61 28.61 0 0 1 -28.61 28.61 28.71 28.71 0 0 1 -3.69-.27 28.59 28.59 0 1 0 28.43-42.66z" fill="url(#b)"/></symbol><symbol id="g"><g mask="url(#a)"><use height="100" transform="matrix(.71428571 0 0 .71428571 2 5)" width="100" xlink:href="#f"/></g><use height="100" width="100" xlink:href="#e"/></symbol><use height="100" width="100" xlink:href="#g"/></svg>

<svg x="0" y="0" viewBox="0 0 100 100" xmlns="http://www.w3.org/2000/svg" xmlns:xlink="http://www.w3.org/1999/xlink">
  <symbol id="raindrop">
    <path fill="#0062bf" d="M2.5,13A2.5,2.5,0,0,1,.21,9.51l3.55-8a2.5,2.5,0,0,1,4.57,2l-3.55,8A2.5,2.5,0,0,1,2.5,13Z"></path>
  </symbol>
  <symbol id="cloud">
    <path d="M55.7,5A23.94,23.94,0,0,0,34.37,18.05a9.9,9.9,0,0,0-12.78,5.56,15,15,0,0,0-1.71-.1A14.81,14.81,0,0,0,9.2,28,14.63,14.63,0,0,0,5,38.17v.21A14.83,14.83,0,0,0,19.88,53.06H75.59a14.3,14.3,0,0,0,3.67-28.14A23.93,23.93,0,0,0,55.7,5Z"></path>
    <image x="5" y="14" width="85" height="43" xlink:href="data:image/png;base64,iVBORw0KGgoAAAANSUhEUgAAAFYAAAAkCAMAAAAkYj0PAAAABGdBTUEAALGPC/xhBQAAAAFzUkdCAK7OHOkAAAAVUExURSgoKExpcaCgoFBQUG5ublBQUISEhI1fsT0AAAAHdFJOUxsACBsPFRpGXuFgAAABWElEQVRIx7XV25bDIAgF0BMu/v8nF/E+iWlqHNKVN3cpIMXxL4GFM3SQfTazkUyxk63oLYwlVSy2silXkS/wUrZS2a3ZCn1zsdSw7UUYijuHsTa1IvfwWrbSXLkc4N9r27JViwmM1UtWXA3hohQ41m6vl8FQZi7wu2z7KXPW4uRiZS+2AmdXN7DdQEQWQHYHlt6z0dXBBa2xeeVktiZc1jDoF5eGkI4d4MjKc7cNbZ3bqjocLLx5oPDYTaIftcfvAvcs2GFxVsJTOP1wO1jGdUSLaz/DWA1Tl45+Tkqul2ArcPzayGq8JafOUffP3TUp6JQs+Rptc6vtmtBkUw+dv0NzWG0PYf8O7Ym09+ITXyXOPZqEX95aFe3PKxRsL2XV3HR+ZALirPSF0ceHp6F51WBv1A22VaW2GHWzWvat8LOAPf4CrjrA+neNK7+PQBf/DmmLrId09/QDWyESBsibwBUAAAAASUVORK5CYII="></image>
  </symbol>
  <symbol id="s10">
    <use xlink:href="#cloud" fill="#999999" x="0" y="0" width="100" height="100" transform="translate(3,18) scale(1,1)"></use>
    <use xlink:href="#raindrop"  x="0" y="0" width="100" height="100" transform="translate(18,78) scale(1,1)"></use>
    <use xlink:href="#raindrop"  x="0" y="0" width="100" height="100" transform="translate(32,87) scale(1,1)"></use>
    <use xlink:href="#raindrop"  x="0" y="0" width="100" height="100" transform="translate(47,79) scale(1,1)"></use>
    <use xlink:href="#raindrop"  x="0" y="0" width="100" height="100" transform="translate(60,78) scale(1,1)"></use>
    <use xlink:href="#raindrop"  x="0" y="0" width="100" height="100" transform="translate(74,87) scale(1,1)"></use>
  </symbol>
  <symbol id="moon">
    <path d="M28.43,0A28.44,28.44,0,0,1,32.3,14.32,28.61,28.61,0,0,1,3.69,42.93,28.71,28.71,0,0,1,0,42.66,28.59,28.59,0,1,0,28.43,0Z" fill="url(#moon-grad)"></path>
  </symbol>

  <defs>
    <mask id="cloud_3_18_1_1_5">
    <rect x="0" y="0" width="100" height="100" fill="white"></rect>
    <use xlink:href="#cloud" fill="black" stroke="black" stroke-linejoin="round" stroke-width="10" x="0" y="0" width="100" height="100" transform="translate(3,18) scale(1,1)"></use>
  </mask>
    <linearGradient id="moon-grad" x1="0%" y1="50%" x2="100%" y2="0%">
      <stop offset="0%" stop-color="#686e73" />
      <stop offset="100%" stop-color="#6a7075" />
    </linearGradient>
  </defs>
  <symbol id="s41n">
    <g mask="url(#cloud_3_18_1_1_5)">
      <use xlink:href="#moon"  x="0" y="0" width="100" height="100" transform="translate(2,5) scale(0.714285714,0.714285714)"></use>
    </g>
    <use xlink:href="#s10" x="0" y="0" width="100" height="100"></use>
  </symbol>
  <use xlink:href="#s41n" x="0" y="0" width="100" height="100"></use>
</svg>
